X:1
T:[ID 2-17]
T:[ID 2-17]
L:1/8
M:4/4
K:C
V:1 treble 
V:1
 Bezecug adade | %1
"^onigs Quadrille\n[T:Konigs Quadrillge [mit Trio%5d][T:In dieser Quelle auch als: K\" g uadg e |] %2
[K:D][M:2/4] dd/d/ de | ff/f/ fg | a>d' a>d' | a/b/a/g/ f/g/f/e/ | dd/d/ de | ff/f/ fg | %8
 af b/a/g/f/ | ee/e/ e2 :: ee/e/ ed/e/ | ff/f/ f2 | d'd'/d/ d'c'/d'/ | e'e'/e'/ e'2 | %14
 bb b/d'/c'/b/ | a/b/a/g/ fg | f/g/a/b/ a/g/f/e/ | dd/d/ d2 :| %18
[K:G][M:2/4]"^Trio" !fermata![G,DBg]2 d2 |"^1)" d/e/d/c/ Bc | dgfe | e2 d2 | c/d/c/B/ AA | %23
 B/c/B/A/ GG | A/B/A/G/ FF | GG G2 :: ddde | fffg | aaab | !fermata!c'3 f | gb/g/ dd | ce/c/ AA | %32
 A/B/A/G/ FF | GG G2 :| %34

